X: 1
T: Frog in the Well v.2
P: piffero secondo a0045
O: Dan Moylan
%R: polka, march
F: http://ancients.sudburymuster.org/mus/ssp/pdf/matthewsF.pdf
Z: 2019 John Chambers <jc:trillian.mit.edu>
M: 2/4
L: 1/16
K: D
D2 |\
F2F2 A2F2 | G2F2 C4 | F2F2 DEFG | A2G2 G2C2 |\
F2F2 A2F2 | G2F2 C4 | F2F2 CEFG | A2F2 F2 :|
|: z2 |\
d2F2 D4 | d2F2 D4 | E3C D3B, | C2E2 DEFG |\
D2A2 DFAd | D2A2 DFAd | F2F2 CEFG | A2F2 F2 :|


